X: 724
T: Weigong puge zhai
L: 1/16
M: 2/4
K: F
c2 d f c2 B A [I:setbarnb 1]| 
G2 A cG4 | 
F2 G A F2 E D | 
C2 D FC4 | 
C2 C2 c2 B A | 
G2 G2 G2 c2 | 
B2 B G F G F D | 
C2 D FC4 |]

@@@ Tune index: 9598
